!!!ONB: MCCC : ILB0162_02 : Extracted Monophonic Melody
!!!COM: Beethoven, Ludwig van
!!!OPR: Piano Sonata No.1
!!!OMV: 2
!!!SCT: Op.2 No.1
!!!ODT: 1793///
**kern
*thru
*Ipiano
*clefG2
*k[b-]
*F:
*M3/4
*MM40
8.c
16c
=1
4a
8b-
8a
8g
8f
=2
4f
8e
8c
8d
8e
=3
8f
16cc
16r
8cc
16b-
16r
8b-
16a
16r
=4
4a
16g
16c
16d
16e
16f
16f#
16g
16g#
=5
4a
8b-
8a
8g
8f
=6
4dd
4ee
16gg
16ff
16ee
16ff
=7
16ee
16dd
16cc
16b-
8.a
16a
16cc
16b-
16g
16e
=8
4g
8f
8r
8.cc
16ff
=9
4ff
4ee
8.ff
16aa
=10
4ccc
16bb
16ccc
16ddd
16ccc
16bb-
16aa
16gg
16ff
=11
4ff
4ee
16.ff
32gg
16.aa
32bb
=12
8ddd
[8ccc
16ccc]
16bb
16ddd
16ccc
16ccc
16bb-
16aa
16bb-
=13
4aa
8bb-
8aa
8gg
8ff
=14
4ee
8dd
8r
8.ddd
16ccc
=15
16ccc
16fff
16eee
16ddd
16ccc#
16ddd
16ccc
16bb-
16aa
16ccc
16bb-
16gg
=16
4gg
8ff
8r
4aa
=17
4ddd
4D
8.ddd
16ddd
=18
4ddd
8ccc#
8r
8.ccc#
16ddd
=19
4eee
4AA
8.gg
16gg
=20
4gg
8ff
8r
4ff
=21
4ddd
4GG
8.fff
16fff
=22
8fff
8eee
8eee
8ddd
8ddd
8ccc
=23
8ccc
[8bb
32bb]
32ccc
32ddd
32ccc
32bb
32ccc
32ddd
32bb
16ccc
16ddd
16eee
16ccc
=24
8ccc
8bb[
32bb]
32ccc
32ddd
32ccc
32bb
32ccc
32ddd
32bb
32ccc
32ddd
32eee
32ddd
32ccc
32bb
32aa
32gg
=25
32gg#
32aa
32ccc
32bb
32aa
32gg
32ff
32ee
32gg
32ff
32aa
32gg
32ff
32ee
32dd
32cc#
32dd
32ee
32ff
32ee
32gg
32ff
32ee
32dd
=26
32cc
32dd
32cc
32b
32cc
32g
32a
32b
32cc
32dd
32ee
32ff
32gg
32ff#
32gg
32ff#
16gg
16ff
16ee
16dd
=27
8cc
8c
8f
8e
8d
8c
=28
4c
4B
4B
=29
8c
24c
24e
24g
24g
24f
24r
24f
24e
24r
24e
24d
24r
24d
24c
24r
=30
4c
4B
4b
=31
8cc
[8c
16c]
32d
32e
32f
32g
32a
32b-
32cc
32b
32cc
32dd
32cc
32b-
32a
32g
=32
4a
8b-
8a
8g
8f
=33
4f
8e
8c
8d
8e
=34
4f
16cc
16b-
16b-
16b-
16b-
16a
16a
16a
=35
8.a
32b-
32a
8g
24c
24c#
24d
24e-
24e
24f
24f#
24g
24g#
=36
4a
24cc
24b-
24r
24b-
24a
24r
24a
24g
24r
24g
24f
24r
=37
4dd
4ee
32gg
32ff
32ee
32ff
32ee
32ff
32gg
32ff
=38
32ee
32dd
32cc#
32dd
32ee
32dd
32cc
32b-
4a
16cc
16b-
16g
16e
=39
4g
8f
8r
8.cc
16ff
=40
4ff
4ee
8.ff
16aa
=41
4ccc
16bb
16ccc
16ddd
16ccc
16bb-
16aa
16gg
16ff
=42
4ff
32ee
32ff
32ee
32dd
32ee
32cc
32dd
32ee
16.ff
32gg
16.aa
32bb
=43
8ddd
8ccc
24r
24bb
24ccc
24r
24ddd
24ccc
24r
24ccc
24bb
24r
24ccc
24bb-
=44
8.aa
16aa
24r
24ccc
24bb-
24r
24bb-
24aa
24r
24aa
24gg
24r
24gg
24ff
=45
4ee
4dd
8.ddd
16ccc
=46
16ccc
8fff
32eee
32ddd
32ccc#
32eee
32ddd
32ccc
32bb-
32aa
32ccc
32bb-
32aa
32gg
32bb-
32gg
32ff
32ee
32gg
32ee
=47
4gg
16ff
16cc
16ff
16cc
16b-
16a
16g
16f
=48
8f
[8e
32e]
32f
32g
32f
32e
32f
32g
32e
16f
16g
16a
16f
=49
8f
[8e
32e]
32f
32g
32f
32e
32f
32g
32e
32f
32a
32cc
32b-
32a
32g
32f
32e-
=50
32d
32e-
32d
32c#
32d
32e
32f
32f#
32g
32a
32b-
32cc
32dd
32ee
32ff
32ff#
32gg
32aa
32bb-
32ccc
32ddd
32eee
32fff
32ddd
=51
32ccc
32ddd
32ccc
32bb
32ccc
32fff
32eee
32ddd
32ccc
32bb
32bb-
32aa
32gg
32ff
32ee
32dd
16cc
16b-
16a
16g
=52
[2f
8f]
16c
16f
=53
4f
4e
4e
=54
24f
24A
24c
24f
24a
24cc
24cc
24f
24b-
24b-
24e
24a
24a
24d
24g
24g
24c
24f
=55
4f
4e
4ee
=56
16r
48f
48a
48cc
16r
48ff
48aa
48ccc
48ccc
48aa
48bb-
16r
48bb-
48gg#
48aa
16r
48aa
48ff#
48gg
16r
48gg
48ee
48ff
16r
=57
4ff
32ee
32cc
32dd
32ee
32ff
32gg
32aa
32bb-
32ccc
32bb
32ccc
32ddd
32ccc
32bb-
32aa
32gg
=58
8ff
8r
16cc
32dd
32ee
32ff
32gg
32aa
32bb-
32ccc
32bb
32ccc
32ddd
32ccc
32bb-
32aa
32gg
=59
[4.gg
16.gg]
32aa
16ccc
16bb-
16gg
16ee
=60
4gg
8ff
8r
4r
=61
8gg
8r
8ff
8r
==
*-
